X:211
M:4/4
L:1/4
K:Bb
B,3/2 C/ D B, | D E F F | B A/G/ F d | c c B2 | B,3/2 C/ D B, | D E F F | B A/G/ F d | c c B2 | d3/2 d/ c c | B B A2 | !sintro!G3/2 G/ F B | c A B2 !eintro!|]
